X: 1613
T: Joe Yates Hornpipe No 4
B: australian traditional tunes wiki
M:4/4
L:1/8
R: Hornpipe
Q: 1/4=100
K:G
V:1 
x2|"G" B<d G<B D<G B,<D | B<d cB"D7" c2 z2 |  "Am" c<e A<c"D7" F<A D<F | AcBA"G" B2 d2 |
"G" B<d G<B D<G B,<D | B<d cB"D7" c2 AB |  "Am"ceAc"D7" FADF |"G" A2 G2 G2 z2 |
"G" d2 B<d g2 dg | b2 ae"Am" a3 g |"D7" gAfA eAde |  "G" eGdG cGBG |
"G" d2 B<d g2 dg | b2 ae"Am" a3 g |"D7" gfed ^cdef |"G" a2 g2 g2 z2 ||
% abcbook-tune_id 6342d53ab87bb51d29e3bef9


% abcbook-boost 0
% abcbook-tablature 
% abcbook-transpose 
% abcbook-lastupdated 1665324374038
% abcbook-soundfonts 
% abcbook-repeats 1
% NFF Book 2017
% Bush Traditions recording played by Tony Stuart

